src/assets/filled/Flag2.svg

<svg width="24" height="24" viewBox="0 0 24 24"  xmlns="http://www.w3.org/2000/svg">
<path d="M15.2 7.16L7.19995 3.7V2.75C7.19995 2.34 6.85995 2 6.44995 2C6.03995 2 5.69995 2.34 5.69995 2.75V21.25C5.69995 21.66 6.03995 22 6.44995 22C6.85995 22 7.19995 21.66 7.19995 21.25V17.29L15.42 13.23C15.42 13.23 15.42 13.23 15.43 13.23C17.09 12.37 17.98 11.26 17.93 10.09C17.88 8.92 16.91 7.88 15.2 7.16Z" />
</svg>

<?xml version="1.0" encoding="UTF-8"?>
<svg width="24" height="24" viewBox="0 0 24 24" xmlns="http://www.w3.org/2000/svg">
 <path d="m15.2 7.16-8-3.46v-0.95c0-0.41-0.34-0.75-0.75-0.75s-0.75 0.34-0.75 0.75v18.5c0 0.41 0.34 0.75 0.75 0.75s0.75-0.34 0.75-0.75v-3.96l8.22-4.06h0.01c1.66-0.86 2.55-1.97 2.5-3.14s-1.02-2.21-2.73-2.93z"/>
</svg>
